X:11656
%19287
T:Ãlta gÃ¥nglÃ¥t
R:Da Capo al Fine  Fine
C:av Gunnar SÃ¤fsund, Ãlta
M:2/4
L:1/8
Q:1/4=190
K:C
(gf)|:"C"e(e/2f/2) ge|c2 dc|"F"B>A A2-|A2 f>e|"Dm"d(d/2e/2) fe|d2 a2|\
"G7"g(d/2e/2) fg|"C"e3 (g/2f/2)
